X: 3062
T: Bean An Tí Ar Lár
R: reel
M: 4/4
K: Dmajor
|:AGFE D2 FD|GEFE DBAB|AGFE D2 FD|1 E2 cA BGEB:|2 E2 cA BGEd||
|:cdec A2 cA|cdec AF E2|1 cdec A2 cA|E2 cA BGEd:|2 cdeg f2 ed|ABcA BdcB||

